X: 14918
T: Gathering, The
R: jig
M: 6/8
K: Bdorian
FAB fe/f/e|dcB ABc|dFc EBE|B/c/BA GFE|
[1 FAB fe/f/e|dcB cde|fda gfe|f/g/fd e2z:|
[2 FB,B, GB,B,|AB,F BFF|Bcd cBA|G/A/GE FDE||

